X:1
T:Brunett'e
T:Brunett'e
T:Giovanni Maria Artusi
T:Source : Canzonette a 4 voci---Libro primo---Venetia---G.Vincenti-1598. Editor : André Vierendeels (20/02/14).
C:Giovanni Maria Artusi
%%score [ 1 2 3 4 ]
L:1/8
Q:1/4=80
M:3/4
K:C
V:1 treble nm="Soprano 1" snm="S 1"
V:2 treble nm="Soprano 2" snm="S 2"
V:3 treble nm="Alto" snm="A"
V:4 treble-8 nm="Tenor" snm="T"
V:1
 e2 e2 f2 | e4 d2 | d4 d2 |[M:4/4] f2 ed c3 B | cd ef g2 fe | d2 e2 d4 | e8 |[M:3/4] c2 c2 c2 | %8
w: Bru- net- t'e|la mia|Fil- li,|piu d'He- ro'e d'A- *||* ma- ril-|li,|Bru- net- t'e|
 c4 A2 | B4 B2 |[M:4/4] d2 cB A4- | A2 c2 c4- | c2 BA B4 | c4 c4 | B2 c2 B2 A2 | B2 c3 c B2 | %16
w: la mia|Fil- li,|piu d'He- ro'e d'A-|* ma- ril-||li, ma|co- si pur di|lei tan- to m'ap-|
 ^c2 d2 e4 | ^f4 f4 | g2 c2 d2 e2 | f2 f2 g4- | g2 e2 g2 g2 | fe fg f4- | f2 e2 d4 | e4 e4 | %24
w: pa- * *|go, quan-|t'e d'o- gn'al- tr'il|suo co- lor,|_ il suo co-|* * * * lor|_ piu va-|go, ma|
 d2 c2 d2 d2 | e2 e3 e e2- | e2 d4 ^c2 | d4 d4 | G2 A2 B2 B2 | c2 d2 e2 c2 | BA Bc B2 AG | %31
w: co- si pur di|lei tan- to m'ap-|* pa- *|go, quan-|t'e d'o- gn'al- tr'il|suo co- lor piu|va- * * * * * *|
 A3 B c2 BA | B2 c4 B2 | c8 |] %34
w: ||go.|
V:2
 c2 c2 c2 | c4 A2 | B4 B2 |[M:4/4] d2 cB A4- | A2 c2 c4- | c2 BA B4 | c8 |[M:3/4] e2 e2 f2 | %8
w: Bru- net- t'e|la mia|Fil- li,|piu d'He- ro'e d'A-|* ma- ril-||li,|Bru- net- t'e|
 e4 d2 | d4 d2 |[M:4/4] f2 ed c3 B | cd ef g2 fe | d2 e2 d4 | e4 e4 | d2 c2 d2 d2 | e2 e3 e e2- | %16
w: la mia|Fil- li,|piu d'He- ro'e d'A- *||* ma- ril-|li, ma|co- si pur di|lei tan- to m'ap-|
 e2 d4 ^c2 | d4 d4 | G2 A2 B2 B2 | c2 d2 e2 c2 | BA Bc B2 AG | A3 B c2 BA | B2 c4 B2 | c4 c4 | %24
w: * pa- *|go, quan-|t'e d'o- gn'al- tr'il|suo co- lor piu|va- * * * * * *|||go, ma|
 B2 c2 B2 A2 | B2 c3 c B2 | ^c2 d2 e4 |"^-natural" ^f4 f4 | g2 c2 d2 e2 | f2 f2 g4- | g2 e2 g2 g2 | %31
w: co- si pur di|lei tan- to m'ap|pa- * *|go, quan-|t'e d'o- gn'al- tr'il|suo co- lor,|_ il suo co-|
 fe fg f4- | f2 e2 d4 | e8 |] %34
w: lor _ _ _ _|_ piu va-|go.|
V:3
 G2 G2 A2 | G4 ^F2 | G4 G2 |[M:4/4] A6 GF | E2 G2 G4 | G8- | G8 |[M:3/4] G2 G2 A2 | G4 ^F2 | %9
w: Bru- net- t'e|la mia|Fil- li,|piu d'He- ro'e|d'A- ma- ril-|li,|_|Bru- net- t'e|la mia|
 G4 G2 |[M:4/4] A6 GF | E2 G2 G4 | G8- | G4 G4 | G2 A2 G2 F2 | E2 A3 A ^G2 | A8 | D4 A4 | %18
w: Fil- li,|piu d'He- ro'e|d'A- ma- ril-|li,|_ ma|co- si pur di|lei tan- to m'ap-|pa-|go, quan-|
 E2 E2 G2 G2 | A2 A2 E4 | G4 G2 c2 | c4 A4 | G8 | G4 G4 | G2 A2 G2 F2 | E2 A3 A ^G2 | A8 | D4 A4 | %28
w: t'e d'o- gn'al- tr'il|suo co- lor,-|il suo co-|lor piu|va-|go, ma|co- si pur di|lei tan- to m'ap-|pa-|go, quan-|
 E2 E2 G2 G2 | A2 A2 E4 | G4 G2 c2 | c4 A4 | G8 | G8 |] %34
w: t'e d'o- gn'al- tr'il|suo co- lor,|il suo co-|lor piu|va-|go.|
V:4
 c2 c2 F2 | c4 d2 | G4 G2 |[M:4/4] D4 F3 G | A2 GF E2 F2 | G8 | C8 |[M:3/4] c2 c2 F2 | c4 d2 | %9
w: Bru- net- t'e|la mia|Fil- li,|piu d'He- ro'e|d'A- * * ma- *|ril-|li,|Bru- net- t'e|la mia|
 G4 G2 |[M:4/4] D4 F3 G | A2 GF E2 F2 | G8 | C8 | z8 | z8 | z8 | z4 d4 | c2 A2 G2 G2 | F2 D2 C4 | %20
w: Fil- li,|piu d'He- ro'e|d'A- * * ma- *|ril-|li,||||quan-|t'e d'o- gn'al- tr'il|suo co- lor,|
 E8 | F8 | G8 | C8 | z8 | z8 | z8 | z4 d4 | c2 A2 G2 G2 | F2 D2 C4 | E8 | F8 | G8 | C8 |] %34
w: piu|va-||go,||||quan-|t'e d'o- gn'al- tr'il|suo co- lor|piu|va-||go.|

